X:1
T:Title
%%score { 1 | ( 2 3 ) }
L:1/8
Q:1/4=95
M:6/8
K:Eb
V:1 treble nm="Grand Piano"
V:2 bass 
V:3 bass 
V:1
 G3 G[FA][GB] | [Ac]3 .[GB]3 | [Fd][Ac][GB] [FA][EG][DF] | G6 | G3 G[FA][GB] | [Ac]3 .[GB]3 | %6
w: J.~H.~Rosecrans * * *||||||
 [Fd][Ac][GB] [FA][EG][DF] | E3- E2 E | [DF]>[DF][DF] [DF][G,E][B,DF] | %9
w: |||
 [B,EG]2 [B,FA] [B,GB]2 [B,EG] | [B,DF]>[B,DF][B,DF] [B,DF][G,E][B,DF] | [B,EG]2 [E=A] [DB]3 | %12
w: |||
 [Ge]3 edc | [GB]3 .[EG]3 | [DF]3 [DF][DB][FA] | G2 c B3 | [Ge]3 edc | [GB]3 .[EG]3 | %18
w: ||||||
 [DF]2 [DB] [DB][DA][DF] | E6 |] %20
w: ||
V:2
 [E,B,E]3 [E,B,E][E,B,][E,E] | [E,E]3 .[E,E]3 | [B,,B,][B,,B,][B,,B,] [B,,B,][B,,B,][B,,B,] | %3
 [E,B,E]6 | [E,B,E]3 [E,B,E][E,B,][E,E] | [E,E]3 .[E,E]3 | %6
 [B,,B,][B,,B,][B,,B,] [B,,B,][B,,B,][B,,A,] | [E,G,]3- [E,G,]2 [E,G,] | %8
 [B,,B,]>[B,,B,][B,,B,] [B,,B,]B,,B,, | E,2 E, E,2 E, | B,,>B,,B,, B,,B,,B,, | %11
 E,2 [C,F,] [B,,F,]3 | [E,B,]3[K:treble] [A,CA][A,DA][A,EA] | [E,E]3 .[E,B,]3 | %14
 [B,,B,]3 [B,,B,][B,,B,][B,,B,] | .B,3 z3 | [E,B,]3[K:treble] [A,CA][A,DA][A,EA] | %17
 [E,E]3 .[E,B,]3 | [B,,B,]2 [B,,F,] [B,,F,][B,,F,][B,,A,] | [E,G,]6 |] %20
V:3
 x6 | x6 | x6 | x6 | x6 | x6 | x6 | x6 | x6 | x6 | x6 | x6 | x3[K:treble] x3 | x6 | x6 | %15
 [E,E]2- [E,A,E] [E,G,E]3 | x3[K:treble] x3 | x6 | x6 | x6 |] %20

